public/logos/pepsi.svg

<?xml version="1.0" encoding="utf-8"?>
<svg xmlns="http://www.w3.org/2000/svg" fill="none" height="100%" overflow="visible" preserveAspectRatio="none" style="display: block;" viewBox="0 0 92.1065 35" width="100%">
<g id="Pepsi">
<path d="M17.53 0.318637C27.0345 0.318637 34.74 8.01084 34.74 17.5002C34.74 26.9895 27.0345 34.6814 17.53 34.6814C8.02483 34.6814 0.319307 26.9892 0.319307 17.5002C0.319307 8.01116 8.02483 0.318637 17.53 0.318637ZM17.53 0C7.8639 0 0 7.85057 0 17.5002C0 27.1501 7.8639 35 17.53 35C27.1957 35 35.0593 27.1491 35.0593 17.5002C35.0593 7.85057 27.1957 0 17.53 0Z" fill="var(--fill-0, #9FA3AE)" id="Vector"/>
<g id="Group">
<g id="Group_2">
<path d="M91.784 10.4534C91.9772 10.2284 92.1065 9.97191 92.1065 9.65041C92.1089 9.33128 91.9942 9.02231 91.784 8.7818C91.5576 8.55621 91.2693 8.42748 90.9458 8.42748C90.6246 8.42748 90.3672 8.55653 90.1083 8.7818C89.8838 9.00708 89.7857 9.2964 89.7857 9.65041C89.7857 9.97191 89.8838 10.2284 90.1083 10.4534C90.3672 10.6786 90.6246 10.7749 90.9458 10.7749C91.2693 10.7749 91.5576 10.6786 91.784 10.4534ZM91.8494 22.2872V11.9006H90.1086L90.1415 22.2872H91.8494ZM87.8204 12.4155L87.5311 12.2865C86.7574 11.8359 85.8225 11.6113 84.6954 11.6113C83.4705 11.6113 82.4717 11.9003 81.7306 12.4793C81.3439 12.7689 81.0859 13.0579 80.8927 13.4444C80.6999 13.7978 80.6022 14.1515 80.6022 14.5692C80.6022 15.2769 80.9253 15.8555 81.5058 16.3698C82.0528 16.8525 82.8581 17.2384 83.9217 17.5596C84.8234 17.8489 85.4358 18.1386 85.8225 18.4282C86.1453 18.75 86.3388 19.1034 86.3388 19.5533C86.3388 20.0357 86.0808 20.4216 85.629 20.7434C85.1775 21.0009 84.5325 21.1615 83.7282 21.1615C82.8574 21.1615 81.9883 20.9362 81.0859 20.5175L80.8602 20.3576L80.119 21.7076L80.3777 21.8363C81.3762 22.3188 82.4723 22.5434 83.6643 22.5434C84.9534 22.5434 86.0166 22.2863 86.8542 21.7076C87.2731 21.4502 87.5634 21.0971 87.7891 20.7437C88.0136 20.3257 88.111 19.8748 88.111 19.4249V19.3918C88.111 18.6203 87.7891 17.9448 87.1767 17.3987C86.6617 16.9491 85.8235 16.5626 84.7276 16.2414C83.8894 15.9508 83.2776 15.6618 82.9229 15.4368C82.5362 15.1469 82.3753 14.826 82.3753 14.4723C82.3753 14.054 82.5362 13.7331 82.8916 13.4438C83.2776 13.186 83.7924 13.0251 84.4696 13.0251C85.4042 13.0251 86.1776 13.186 86.79 13.5719L87.0158 13.7328L87.8204 12.4155ZM77.3162 13.187C76.1239 12.1581 74.642 11.6116 72.933 11.6116C71.2576 11.6116 69.8722 12.1256 68.7447 13.1226C67.4872 14.2487 66.8435 15.7915 66.8435 17.8174V25.8884H68.5183V20.6794C69.0343 21.2577 69.6796 21.7083 70.4523 22.0304C71.2257 22.3834 72.0632 22.544 72.9662 22.544C74.6739 22.544 76.1239 22.0304 77.3162 20.9359C78.541 19.8748 79.1522 18.5891 79.1522 17.0772C79.1522 15.534 78.541 14.2483 77.3162 13.187ZM72.933 13.0579C74.1905 13.0579 75.2854 13.4444 76.1229 14.2155C76.9937 14.9873 77.4448 15.9514 77.4448 17.1103C77.4448 18.2026 77.0575 19.1031 76.2845 19.8748C75.4469 20.6787 74.3191 21.0971 72.9659 21.0971C71.6114 21.0971 70.5156 20.6791 69.6461 19.8748C68.8411 19.0715 68.4547 18.1711 68.4547 17.1103C68.4547 16.0483 68.8414 15.1163 69.6461 14.3439C70.4846 13.5085 71.5804 13.0579 72.933 13.0579ZM64.1684 13.7019C63.0415 12.2865 61.43 11.6113 59.2705 11.6113C57.6593 11.6113 56.2729 12.0615 55.0812 13.0257C53.7928 14.0227 53.1484 15.3738 53.1484 17.0456C53.1484 17.978 53.4058 18.9106 53.9534 19.7786C54.4375 20.6144 55.1783 21.2902 56.1774 21.8042C57.1759 22.2869 58.2391 22.5115 59.3992 22.5115C60.4951 22.5115 61.5258 22.2869 62.5255 21.8042C63.5234 21.2902 64.2648 20.6144 64.7482 19.7786L65.0707 19.2318H63.2021C62.8148 19.7786 62.2663 20.2291 61.5587 20.5825C60.8498 20.9359 60.0764 21.0971 59.335 21.0971C58.304 21.0971 57.4339 20.839 56.6602 20.3247C55.8868 19.7783 55.3718 19.1031 55.0493 18.2026C56.1119 17.7846 57.1759 17.5593 58.3365 17.5593L60.0764 17.7517L62.7829 18.0095C63.6204 18.0095 64.3306 17.8808 64.974 17.6883C65.2323 17.5915 65.3929 17.4627 65.458 17.3018C65.5542 17.1734 65.5542 16.9491 65.4906 16.6907C65.2962 15.534 64.8775 14.5377 64.1684 13.7019ZM63.7181 16.3392L63.7501 16.403L62.8151 16.5314L60.7853 16.3389L57.9495 16.113H57.4661C56.5637 16.1774 55.7262 16.3389 54.9203 16.6276C55.0486 15.4375 55.6294 14.5045 56.5963 13.83C57.4013 13.3147 58.3043 13.0257 59.2705 13.0257C60.7843 13.0257 61.945 13.5081 62.8151 14.473C63.2666 15.0523 63.5882 15.6628 63.7181 16.3392ZM45.6396 11.6113C43.9961 11.6113 42.5784 12.1253 41.4506 13.1223C40.1938 14.2483 39.5814 15.7912 39.5814 17.8167L39.5495 25.8878H41.2897L41.2571 20.6787C41.7728 21.2574 42.4172 21.7076 43.1586 22.0298C43.9639 22.3831 44.8021 22.5431 45.7041 22.5431C47.4121 22.5431 48.862 22.0298 50.0547 20.9356C51.2789 19.8745 51.8588 18.5882 51.8588 17.0766C51.8588 15.5331 51.2789 14.2474 50.0863 13.186C48.862 12.1578 47.4121 11.6113 45.6396 11.6113ZM42.353 14.3442C43.2231 13.5085 44.2867 13.0579 45.6396 13.0579C46.929 13.0579 47.9923 13.4444 48.8614 14.2155C49.7325 14.9873 50.1505 15.9514 50.1505 17.1103C50.1505 18.2026 49.7644 19.1031 49.0223 19.8748C48.1854 20.6787 47.0896 21.0971 45.6719 21.0971C44.3506 21.0971 43.2231 20.6791 42.3527 19.8748C41.5793 19.0715 41.1926 18.1711 41.1926 17.1103C41.1929 16.0486 41.5793 15.1166 42.353 14.3442Z" fill="var(--fill-0, #9FA3AE)" id="Vector_2"/>
</g>
<path d="M27.371 4.48074C27.2231 4.36899 27.0827 4.24764 26.9508 4.11749C24.1945 2.17739 20.903 1.13815 17.53 1.14302C8.48176 1.14302 1.14664 8.46593 1.14664 17.4993C1.14164 21.0194 2.27901 24.4465 4.38856 27.2677C9.87107 25.6522 14.6543 22.8415 18.7536 18.7792C22.8477 14.7364 25.7247 9.95141 27.371 4.48074Z" fill="var(--fill-0, #9FA3AE)" id="Vector_3"/>
<path d="M17.53 33.857C26.5776 33.857 33.9127 26.5331 33.9127 17.5004C33.9127 14.3029 32.9931 11.3214 31.4048 8.80257C31.3632 8.76103 31.3257 8.71545 31.2931 8.66651C31.6265 9.7643 31.7953 10.9053 31.7941 12.0523C31.7941 13.9084 31.3643 15.665 30.5201 17.3098C29.6852 18.8719 28.5115 20.2284 27.0846 21.2804C25.9396 22.1232 24.5653 22.8375 22.9474 23.4232C21.6596 23.8935 19.9845 24.3797 17.9093 24.8504L11.9255 26.1941C9.38159 26.7759 7.06469 27.3985 5.00069 28.0361C8.00569 31.5962 12.5028 33.857 17.53 33.857Z" fill="var(--fill-0, #9FA3AE)" id="Vector_4"/>
</g>
</g>
</svg>

<svg xmlns="http://www.w3.org/2000/svg" fill="none" overflow="visible" preserveAspectRatio="none" style="display:block" viewBox="0 0 92.106 35"><path fill="var(--fill-0, #9fa3ae)" d="M17.53.319c9.505 0 17.21 7.692 17.21 17.181s-7.706 17.181-17.21 17.181S.32 26.99.32 17.501C.32 8.01 8.024.318 17.53.318m0-.319C7.864 0 0 7.85 0 17.5S7.864 35 17.53 35s17.53-7.85 17.53-17.5S27.195 0 17.53 0M91.784 10.453c.193-.225.322-.481.322-.803a1.3 1.3 0 0 0-.322-.868 1.17 1.17 0 0 0-.838-.355c-.321 0-.579.13-.838.355-.224.225-.322.514-.322.868 0 .322.098.578.322.803.26.226.517.322.838.322.323 0 .612-.096.838-.322m.065 11.834V11.901h-1.74l.032 10.386zm-4.029-9.871-.289-.13c-.774-.45-1.709-.675-2.836-.675-1.224 0-2.223.29-2.964.868-.387.29-.645.579-.838.965-.193.354-.29.707-.29 1.125 0 .708.322 1.286.903 1.8.547.483 1.352.87 2.416 1.19.901.29 1.514.58 1.9.87.323.321.517.674.517 1.124 0 .483-.258.869-.71 1.19-.452.258-1.097.419-1.9.419-.872 0-1.74-.226-2.643-.645l-.226-.16-.741 1.35.259.13c.998.482 2.094.706 3.286.706 1.29 0 2.353-.257 3.19-.835.42-.258.71-.61.935-.964.225-.418.322-.87.322-1.32v-.032c0-.772-.322-1.447-.934-1.993-.515-.45-1.354-.836-2.45-1.158-.838-.29-1.45-.58-1.804-.804-.387-.29-.548-.611-.548-.965 0-.418.161-.739.517-1.028.386-.258.9-.419 1.578-.419.934 0 1.708.161 2.32.547l.226.16zm-10.504.771c-1.192-1.029-2.674-1.575-4.383-1.575-1.675 0-3.06.514-4.188 1.51-1.258 1.127-1.901 2.67-1.901 4.695v8.071h1.674V20.68a5.26 5.26 0 0 0 1.934 1.351c.774.353 1.611.514 2.514.514 1.708 0 3.158-.514 4.35-1.608q1.837-1.591 1.836-3.859c0-1.543-.611-2.829-1.836-3.89m-4.383-.13c1.257 0 2.352.387 3.19 1.159.87.771 1.322 1.735 1.322 2.894 0 1.093-.387 1.993-1.16 2.765-.838.804-1.966 1.222-3.32 1.222s-2.45-.418-3.319-1.222c-.805-.803-1.191-1.704-1.191-2.765s.386-1.994 1.191-2.766c.839-.835 1.934-1.286 3.287-1.286m-8.765.645c-1.127-1.415-2.738-2.09-4.898-2.09-1.61 0-2.997.45-4.189 1.414-1.288.997-1.933 2.348-1.933 4.02 0 .932.258 1.865.805 2.733q.726 1.253 2.224 2.025c.999.483 2.062.708 3.222.708a7.05 7.05 0 0 0 3.127-.708q1.496-.772 2.222-2.025l.323-.547h-1.869q-.581.82-1.643 1.35a5 5 0 0 1-2.224.515c-1.031 0-1.901-.258-2.675-.772a4.24 4.24 0 0 1-1.61-2.122c1.062-.418 2.126-.644 3.287-.644l1.74.193 2.706.258c.837 0 1.548-.13 2.191-.322q.387-.144.484-.386c.096-.129.096-.353.033-.611-.195-1.157-.614-2.153-1.323-2.99m-.45 2.637.032.064-.935.128-2.03-.192-2.835-.226h-.484a9.5 9.5 0 0 0-2.546.515c.129-1.19.71-2.123 1.676-2.798.805-.515 1.708-.804 2.675-.804 1.513 0 2.674.482 3.544 1.447.452.58.773 1.19.903 1.866M45.64 11.611c-1.644 0-3.062.514-4.19 1.511-1.256 1.126-1.869 2.67-1.869 4.695l-.032 8.07h1.74l-.032-5.208a5.4 5.4 0 0 0 1.902 1.35 6.2 6.2 0 0 0 2.545.514c1.708 0 3.158-.513 4.35-1.607 1.225-1.061 1.805-2.348 1.805-3.86 0-1.543-.58-2.829-1.773-3.89-1.224-1.028-2.674-1.575-4.446-1.575m-3.287 2.733c.87-.835 1.934-1.286 3.287-1.286 1.289 0 2.352.386 3.221 1.158.872.771 1.29 1.735 1.29 2.894 0 1.093-.387 1.993-1.129 2.765-.837.804-1.932 1.222-3.35 1.222-1.321 0-2.449-.418-3.32-1.222-.773-.803-1.16-1.704-1.16-2.765s.387-1.993 1.161-2.766"/><path fill="var(--fill-0, #9fa3ae)" d="M27.371 4.48a4 4 0 0 1-.42-.363 16.33 16.33 0 0 0-9.421-2.974c-9.048 0-16.383 7.323-16.383 16.356a16.27 16.27 0 0 0 3.242 9.769c5.482-1.616 10.265-4.427 14.365-8.489 4.094-4.043 6.97-8.828 8.617-14.298"/><path fill="var(--fill-0, #9fa3ae)" d="M17.53 33.857c9.048 0 16.383-7.324 16.383-16.357 0-3.197-.92-6.179-2.508-8.697a1 1 0 0 1-.112-.136 11.6 11.6 0 0 1 .501 3.385c0 1.856-.43 3.613-1.274 5.258a11.9 11.9 0 0 1-3.435 3.97c-1.145.843-2.52 1.557-4.138 2.143-1.287.47-2.962.957-5.038 1.427l-5.983 1.344A96 96 0 0 0 5 28.036a16.35 16.35 0 0 0 12.529 5.821"/></svg>
